Newaita-dark/apps/48/com.github.danrabbit.harvey.svg

<svg height="48pt" viewBox="0 0 48 48" width="48pt" xmlns="http://www.w3.org/2000/svg" xmlns:xlink="http://www.w3.org/1999/xlink"><linearGradient id="a" gradientUnits="userSpaceOnUse" x1="23.81478" x2="23.81478" y1="42.0509045" y2="44.03547050005"><stop offset="0" stop-opacity=".27451"/><stop offset="1" stop-opacity="0"/></linearGradient><linearGradient id="b"><stop offset="0" stop-opacity=".313726"/><stop offset=".222222" stop-opacity=".27451"/><stop offset="1" stop-opacity="0"/></linearGradient><radialGradient id="c" cx="450.908936" cy="189.579361" gradientTransform="matrix(.00000026 -.117199 -.210958 -.00000015 79.684395 95.392999)" gradientUnits="userSpaceOnUse" r="21.166656" xlink:href="#b"/><radialGradient id="d" cx="450.908936" cy="189.579361" gradientTransform="matrix(-.00000026 .117199 .210958 .00000015 -31.80678 -11.291218)" gradientUnits="userSpaceOnUse" r="21.166656" xlink:href="#b"/><radialGradient id="e" cx="450.908936" cy="189.579361" gradientTransform="matrix(-.00000026 -.117199 .210958 -.00000015 -31.80678 95.392999)" gradientUnits="userSpaceOnUse" r="21.166656" xlink:href="#b"/><radialGradient id="f" cx="450.908936" cy="189.579361" gradientTransform="matrix(.00000026 .117199 -.210958 .00000015 79.684393 -11.291219)" gradientUnits="userSpaceOnUse" r="21.166656" xlink:href="#b"/><linearGradient id="g"><stop offset="0" stop-color="#bdbdbd"/><stop offset="1" stop-color="#e0e0e0"/></linearGradient><linearGradient id="h" gradientUnits="userSpaceOnUse" x1="23.814786" x2="23.814786" xlink:href="#g" y1="42.0509015" y2="4.34415649995"/><linearGradient id="i" gradientUnits="userSpaceOnUse" x1="23.814786" x2="23.814786" y1="42.0509005" y2="4.34415549995"><stop offset="0" stop-color="#80deea"/><stop offset="1" stop-color="#b2ebf2"/></linearGradient><linearGradient id="j" gradientUnits="userSpaceOnUse" x1="30.7607662501" x2="30.7607662501" y1="16.25154987499" y2="30.1435085"><stop offset="0" stop-color="#424242"/><stop offset="1" stop-color="#616161"/></linearGradient><linearGradient id="k" gradientUnits="userSpaceOnUse" x1="30.7607662501" x2="30.7607662501" xlink:href="#g" y1="26.67051912502" y2="19.724539625"/><path d="m7.691406 42.050781h32.496094v1.984375h-32.496094zm0 0" fill="url(#a)"/><path d="m40.1875 42.050781h3.96875v-1.984375h-3.96875zm0 0" fill="url(#c)"/><path d="m7.691406 42.050781h-3.96875v1.984375h3.96875zm0 0" fill="url(#d)"/><path d="m7.691406 42.050781h-3.96875v-1.984375h3.96875zm0 0" fill="url(#e)"/><path d="m40.1875 42.050781h3.96875v1.984375h-3.96875zm0 0" fill="url(#f)"/><path d="m5.457031 4.34375h36.714844c.820313 0 1.488281.667969 1.488281 1.488281v34.730469c0 .820312-.667968 1.488281-1.488281 1.488281h-36.714844c-.820312 0-1.488281-.667969-1.488281-1.488281v-34.730469c0-.820312.667969-1.488281 1.488281-1.488281zm0 0" fill="url(#h)"/><path d="m16.867188 4.34375v37.707031h25.304687c.824219 0 1.488281-.664062 1.488281-1.488281v-34.730469c0-.824219-.664062-1.488281-1.488281-1.488281zm0 0" fill="url(#i)"/><path d="m17.476562 42.050781v-37.707031h-.484374v37.707031zm0 0" fill-opacity=".196078"/><path d="m16.992188 42.050781v-37.707031h-.5v37.707031zm0 0" fill="#fff" fill-opacity=".967742"/><path d="m17.117188 42.050781v-37.707031h-.25v37.707031zm0 0" fill="#212121" fill-opacity=".992157"/><path d="m3.96875 39.941406v.496094c0 .824219.664062 1.488281 1.488281 1.488281h36.714844c.824219 0 1.488281-.664062 1.488281-1.488281v-.496094c0 .824219-.664062 1.488282-1.488281 1.488282h-36.714844c-.824219 0-1.488281-.664063-1.488281-1.488282zm0 0" fill-opacity=".235294"/><path d="m5.457031 4.472656c-.824219 0-1.488281.664063-1.488281 1.488282v.496093c0-.824219.664062-1.488281 1.488281-1.488281h36.714844c.824219 0 1.488281.664062 1.488281 1.488281v-.496093c0-.824219-.664062-1.488282-1.488281-1.488282zm0 0" fill="#fff" fill-opacity=".392157"/><path d="m5.457031 4.203125c-.898437 0-1.628906.730469-1.628906 1.628906v34.730469c0 .898438.730469 1.628906 1.628906 1.628906h36.714844c.898437 0 1.628906-.730468 1.628906-1.628906v-34.730469c0-.898437-.730469-1.628906-1.628906-1.628906zm0 .28125h36.714844c.75 0 1.347656.597656 1.347656 1.347656v34.730469c0 .75-.597656 1.347656-1.347656 1.347656h-36.714844c-.75 0-1.347656-.597656-1.347656-1.347656v-34.730469c0-.75.597656-1.347656 1.347656-1.347656zm0 0" fill="#212121"/><path d="m30.761719 16.25c3.835937 0 6.945312 3.113281 6.945312 6.949219 0 3.835937-3.109375 6.945312-6.945312 6.945312-3.835938 0-6.945313-3.109375-6.945313-6.945312 0-3.835938 3.109375-6.949219 6.945313-6.949219zm0 0" fill="url(#j)"/><path d="m30.761719 16.25c-3.847657 0-6.945313 3.097656-6.945313 6.949219 0 .125 0 .246093.007813.371093.191406-3.675781 3.214843-6.574218 6.9375-6.574218 3.722656 0 6.742187 2.898437 6.933593 6.574218.007813-.125.011719-.246093.011719-.371093 0-3.851563-3.097656-6.949219-6.945312-6.949219zm0 0" fill-opacity=".235294"/><path d="m30.761719 30.886719c-3.847657 0-6.945313-3.097657-6.945313-6.945313 0-.125 0-.25.007813-.371094.191406 3.671876 3.214843 6.574219 6.9375 6.574219 3.722656 0 6.742187-2.902343 6.933593-6.574219.007813.121094.011719.246094.011719.371094 0 3.847656-3.097656 6.945313-6.945312 6.945313zm0 0" fill="#fff" fill-opacity=".392157"/><path d="m328.093669-41.683218c40.912759 0 74.076259 33.205163 74.076259 74.117922 0 40.91276-33.1635 74.07626-74.076259 74.07626-40.91276 0-74.07626-33.1635-74.07626-74.07626 0-40.912759 33.1635-74.117922 74.07626-74.117922zm0 0" fill="none" stroke="#212121" stroke-linejoin="round" stroke-width="3" transform="matrix(.093759 0 0 .093759 0 20.158175)"/><path d="m33.777344 20.171875c-.339844-.011719-.664063.148437-.863282.421875l-2.328124 3.101562-2.140626-1.785156c-.285156-.242187-.671874-.3125-1.023437-.183594-.347656.125-.601563.429688-.664063.796876-.0625.363281.078126.734374.367188.96875l2.976562 2.480468c.214844.183594.496094.265625.777344.234375.28125-.035156.539063-.179687.707032-.40625l2.976562-3.96875c.238281-.308593.28125-.722656.117188-1.070312-.167969-.351563-.515626-.582031-.902344-.589844zm0 0" fill="url(#k)"/><path d="m33.777344 20.171875c-.339844-.011719-.664063.148437-.863282.421875l-2.328124 3.101562-2.140626-1.785156c-.347656-.292968-.839843-.328125-1.222656-.085937-.378906.242187-.558594.707031-.441406 1.140625.09375-.339844.355469-.605469.691406-.710938.335938-.101562.703125-.027344.972656.203125l2.140626 1.785157 2.328124-3.101563c.199219-.273437.523438-.433594.863282-.421875.453125.011719.84375.320312.960937.757812.085938-.304687.023438-.632812-.164062-.886718-.1875-.257813-.480469-.410156-.796875-.417969zm0 0" fill="#fff"/><path d="m34.707031 21.574219c-.035156.09375-.082031.179687-.144531.257812l-2.976562 3.96875c-.167969.226563-.425782.371094-.707032.40625-.28125.03125-.5625-.050781-.777344-.234375l-2.976562-2.480468c-.140625-.113282-.246094-.261719-.308594-.425782-.164062.414063-.039062.886719.308594 1.171875l2.976562 2.480469c.214844.179688.496094.261719.777344.230469s.539063-.179688.707032-.40625l2.976562-3.96875c.21875-.285157.273438-.664063.144531-1zm0 0" fill-opacity=".235294"/><path d="m360.257264.146121c-3.624654-.1249878-7.082657 1.583182-9.207454 4.499571l-24.830962 33.080174-22.831153-19.039849c-3.041377-2.583086-7.165983-3.333015-10.915625-1.958146-3.707979 1.333206-6.416054 4.582896-7.082657 8.499188-.666603 3.87463.833254 7.832586 3.916293 10.332347l31.746968 26.455807c2.291448 1.958146 5.291162 2.833063 8.290875 2.499761 2.999714-.374964 5.749451-1.916483 7.540947-4.332919l31.746968-42.329291c2.541424-3.291353 2.999714-7.707598 1.249881-11.415577-1.791496-3.749642-5.499475-6.20774-9.624081-6.291066zm0 0" fill="none" stroke="#212121" stroke-linecap="round" stroke-linejoin="round" stroke-width="3" transform="matrix(.093759 0 0 .093759 0 20.158175)"/></svg>

<?xml version="1.0" encoding="UTF-8"?>
<svg xmlns="http://www.w3.org/2000/svg" xmlns:xlink="http://www.w3.org/1999/xlink" width="48pt" height="48pt" viewBox="0 0 48 48" version="1.1">
<defs>
<linearGradient id="linear0" gradientUnits="userSpaceOnUse" x1="254" y1="233.5" x2="254" y2="254.666672" gradientTransform="matrix(0.093759,0,0,0.093759,-0.00000572259,20.158178)">
<stop offset="0" style="stop-color:rgb(0%,0%,0%);stop-opacity:0.27451;"/>
<stop offset="1" style="stop-color:rgb(0%,0%,0%);stop-opacity:0;"/>
</linearGradient>
<radialGradient id="radial0" gradientUnits="userSpaceOnUse" cx="450.908936" cy="189.579361" fx="450.908936" fy="189.579361" r="21.166656" gradientTransform="matrix(0.000000261256,-0.117199,-0.210958,-0.000000152308,79.684395,95.392999)">
<stop offset="0" style="stop-color:rgb(0%,0%,0%);stop-opacity:0.313726;"/>
<stop offset="0.222222" style="stop-color:rgb(0%,0%,0%);stop-opacity:0.27451;"/>
<stop offset="1" style="stop-color:rgb(0%,0%,0%);stop-opacity:0;"/>
</radialGradient>
<radialGradient id="radial1" gradientUnits="userSpaceOnUse" cx="450.908936" cy="189.579361" fx="450.908936" fy="189.579361" r="21.166656" gradientTransform="matrix(-0.000000261256,0.117199,0.210958,0.000000152308,-31.80678,-11.291218)">
<stop offset="0" style="stop-color:rgb(0%,0%,0%);stop-opacity:0.313726;"/>
<stop offset="0.222222" style="stop-color:rgb(0%,0%,0%);stop-opacity:0.27451;"/>
<stop offset="1" style="stop-color:rgb(0%,0%,0%);stop-opacity:0;"/>
</radialGradient>
<radialGradient id="radial2" gradientUnits="userSpaceOnUse" cx="450.908936" cy="189.579361" fx="450.908936" fy="189.579361" r="21.166656" gradientTransform="matrix(-0.000000261256,-0.117199,0.210958,-0.000000152308,-31.80678,95.392999)">
<stop offset="0" style="stop-color:rgb(0%,0%,0%);stop-opacity:0.313726;"/>
<stop offset="0.222222" style="stop-color:rgb(0%,0%,0%);stop-opacity:0.27451;"/>
<stop offset="1" style="stop-color:rgb(0%,0%,0%);stop-opacity:0;"/>
</radialGradient>
<radialGradient id="radial3" gradientUnits="userSpaceOnUse" cx="450.908936" cy="189.579361" fx="450.908936" fy="189.579361" r="21.166656" gradientTransform="matrix(0.000000261256,0.117199,-0.210958,0.000000152308,79.684393,-11.291219)">
<stop offset="0" style="stop-color:rgb(0%,0%,0%);stop-opacity:0.313726;"/>
<stop offset="0.222222" style="stop-color:rgb(0%,0%,0%);stop-opacity:0.27451;"/>
<stop offset="1" style="stop-color:rgb(0%,0%,0%);stop-opacity:0;"/>
</radialGradient>
<linearGradient id="linear1" gradientUnits="userSpaceOnUse" x1="254" y1="233.5" x2="254" y2="-168.666672" gradientTransform="matrix(0.093759,0,0,0.093759,0,20.158175)">
<stop offset="0" style="stop-color:rgb(74.117649%,74.117649%,74.117649%);stop-opacity:1;"/>
<stop offset="1" style="stop-color:rgb(87.843138%,87.843138%,87.843138%);stop-opacity:1;"/>
</linearGradient>
<linearGradient id="linear2" gradientUnits="userSpaceOnUse" x1="254" y1="233.5" x2="254" y2="-168.666672" gradientTransform="matrix(0.093759,0,0,0.093759,0,20.158174)">
<stop offset="0" style="stop-color:rgb(50.196081%,87.058824%,91.764706%);stop-opacity:1;"/>
<stop offset="1" style="stop-color:rgb(69.803923%,92.156863%,94.901961%);stop-opacity:1;"/>
</linearGradient>
<linearGradient id="linear3" gradientUnits="userSpaceOnUse" x1="328.083344" y1="-41.666668" x2="328.083344" y2="106.5" gradientTransform="matrix(0.093759,0,0,0.093759,0,20.158175)">
<stop offset="0" style="stop-color:rgb(25.882354%,25.882354%,25.882354%);stop-opacity:1;"/>
<stop offset="1" style="stop-color:rgb(38.039216%,38.039216%,38.039216%);stop-opacity:1;"/>
</linearGradient>
<linearGradient id="linear4" gradientUnits="userSpaceOnUse" x1="328.083344" y1="69.458336" x2="328.083344" y2="-4.625" gradientTransform="matrix(0.093759,0,0,0.093759,0,20.158175)">
<stop offset="0" style="stop-color:rgb(74.117649%,74.117649%,74.117649%);stop-opacity:1;"/>
<stop offset="1" style="stop-color:rgb(87.843138%,87.843138%,87.843138%);stop-opacity:1;"/>
</linearGradient>
</defs>
<g id="surface1">
<path style=" stroke:none;fill-rule:nonzero;fill:url(#linear0);" d="M 7.691406 42.050781 L 40.1875 42.050781 L 40.1875 44.035156 L 7.691406 44.035156 Z M 7.691406 42.050781 "/>
<path style=" stroke:none;fill-rule:nonzero;fill:url(#radial0);" d="M 40.1875 42.050781 L 44.15625 42.050781 L 44.15625 40.066406 L 40.1875 40.066406 Z M 40.1875 42.050781 "/>
<path style=" stroke:none;fill-rule:nonzero;fill:url(#radial1);" d="M 7.691406 42.050781 L 3.722656 42.050781 L 3.722656 44.035156 L 7.691406 44.035156 Z M 7.691406 42.050781 "/>
<path style=" stroke:none;fill-rule:nonzero;fill:url(#radial2);" d="M 7.691406 42.050781 L 3.722656 42.050781 L 3.722656 40.066406 L 7.691406 40.066406 Z M 7.691406 42.050781 "/>
<path style=" stroke:none;fill-rule:nonzero;fill:url(#radial3);" d="M 40.1875 42.050781 L 44.15625 42.050781 L 44.15625 44.035156 L 40.1875 44.035156 Z M 40.1875 42.050781 "/>
<path style=" stroke:none;fill-rule:nonzero;fill:url(#linear1);" d="M 5.457031 4.34375 L 42.171875 4.34375 C 42.992188 4.34375 43.660156 5.011719 43.660156 5.832031 L 43.660156 40.5625 C 43.660156 41.382812 42.992188 42.050781 42.171875 42.050781 L 5.457031 42.050781 C 4.636719 42.050781 3.96875 41.382812 3.96875 40.5625 L 3.96875 5.832031 C 3.96875 5.011719 4.636719 4.34375 5.457031 4.34375 Z M 5.457031 4.34375 "/>
<path style=" stroke:none;fill-rule:nonzero;fill:url(#linear2);" d="M 16.867188 4.34375 L 16.867188 42.050781 L 42.171875 42.050781 C 42.996094 42.050781 43.660156 41.386719 43.660156 40.5625 L 43.660156 5.832031 C 43.660156 5.007812 42.996094 4.34375 42.171875 4.34375 Z M 16.867188 4.34375 "/>
<path style=" stroke:none;fill-rule:nonzero;fill:rgb(0%,0%,0%);fill-opacity:0.196078;" d="M 17.476562 42.050781 L 17.476562 4.34375 L 16.992188 4.34375 L 16.992188 42.050781 Z M 17.476562 42.050781 "/>
<path style=" stroke:none;fill-rule:nonzero;fill:rgb(100%,100%,100%);fill-opacity:0.967742;" d="M 16.992188 42.050781 L 16.992188 4.34375 L 16.492188 4.34375 L 16.492188 42.050781 Z M 16.992188 42.050781 "/>
<path style=" stroke:none;fill-rule:nonzero;fill:rgb(12.941177%,12.941177%,12.941177%);fill-opacity:0.992157;" d="M 17.117188 42.050781 L 17.117188 4.34375 L 16.867188 4.34375 L 16.867188 42.050781 Z M 17.117188 42.050781 "/>
<path style=" stroke:none;fill-rule:nonzero;fill:rgb(0%,0%,0%);fill-opacity:0.235294;" d="M 3.96875 39.941406 L 3.96875 40.4375 C 3.96875 41.261719 4.632812 41.925781 5.457031 41.925781 L 42.171875 41.925781 C 42.996094 41.925781 43.660156 41.261719 43.660156 40.4375 L 43.660156 39.941406 C 43.660156 40.765625 42.996094 41.429688 42.171875 41.429688 L 5.457031 41.429688 C 4.632812 41.429688 3.96875 40.765625 3.96875 39.941406 Z M 3.96875 39.941406 "/>
<path style=" stroke:none;fill-rule:nonzero;fill:rgb(100%,100%,100%);fill-opacity:0.392157;" d="M 5.457031 4.472656 C 4.632812 4.472656 3.96875 5.136719 3.96875 5.960938 L 3.96875 6.457031 C 3.96875 5.632812 4.632812 4.96875 5.457031 4.96875 L 42.171875 4.96875 C 42.996094 4.96875 43.660156 5.632812 43.660156 6.457031 L 43.660156 5.960938 C 43.660156 5.136719 42.996094 4.472656 42.171875 4.472656 Z M 5.457031 4.472656 "/>
<path style=" stroke:none;fill-rule:nonzero;fill:rgb(12.941177%,12.941177%,12.941177%);fill-opacity:1;" d="M 5.457031 4.203125 C 4.558594 4.203125 3.828125 4.933594 3.828125 5.832031 L 3.828125 40.5625 C 3.828125 41.460938 4.558594 42.191406 5.457031 42.191406 L 42.171875 42.191406 C 43.070312 42.191406 43.800781 41.460938 43.800781 40.5625 L 43.800781 5.832031 C 43.800781 4.933594 43.070312 4.203125 42.171875 4.203125 Z M 5.457031 4.484375 L 42.171875 4.484375 C 42.921875 4.484375 43.519531 5.082031 43.519531 5.832031 L 43.519531 40.5625 C 43.519531 41.3125 42.921875 41.910156 42.171875 41.910156 L 5.457031 41.910156 C 4.707031 41.910156 4.109375 41.3125 4.109375 40.5625 L 4.109375 5.832031 C 4.109375 5.082031 4.707031 4.484375 5.457031 4.484375 Z M 5.457031 4.484375 "/>
<path style=" stroke:none;fill-rule:nonzero;fill:url(#linear3);" d="M 30.761719 16.25 C 34.597656 16.25 37.707031 19.363281 37.707031 23.199219 C 37.707031 27.035156 34.597656 30.144531 30.761719 30.144531 C 26.925781 30.144531 23.816406 27.035156 23.816406 23.199219 C 23.816406 19.363281 26.925781 16.25 30.761719 16.25 Z M 30.761719 16.25 "/>
<path style=" stroke:none;fill-rule:nonzero;fill:rgb(0%,0%,0%);fill-opacity:0.235294;" d="M 30.761719 16.25 C 26.914062 16.25 23.816406 19.347656 23.816406 23.199219 C 23.816406 23.324219 23.816406 23.445312 23.824219 23.570312 C 24.015625 19.894531 27.039062 16.996094 30.761719 16.996094 C 34.484375 16.996094 37.503906 19.894531 37.695312 23.570312 C 37.703125 23.445312 37.707031 23.324219 37.707031 23.199219 C 37.707031 19.347656 34.609375 16.25 30.761719 16.25 Z M 30.761719 16.25 "/>
<path style=" stroke:none;fill-rule:nonzero;fill:rgb(100%,100%,100%);fill-opacity:0.392157;" d="M 30.761719 30.886719 C 26.914062 30.886719 23.816406 27.789062 23.816406 23.941406 C 23.816406 23.816406 23.816406 23.691406 23.824219 23.570312 C 24.015625 27.242188 27.039062 30.144531 30.761719 30.144531 C 34.484375 30.144531 37.503906 27.242188 37.695312 23.570312 C 37.703125 23.691406 37.707031 23.816406 37.707031 23.941406 C 37.707031 27.789062 34.609375 30.886719 30.761719 30.886719 Z M 30.761719 30.886719 "/>
<path style="fill:none;stroke-width:3;stroke-linecap:butt;stroke-linejoin:round;stroke:rgb(12.941177%,12.941177%,12.941177%);stroke-opacity:1;stroke-miterlimit:4;" d="M 328.093669 -41.683218 C 369.006428 -41.683218 402.169928 -8.478055 402.169928 32.434704 C 402.169928 73.347464 369.006428 106.510964 328.093669 106.510964 C 287.180909 106.510964 254.017409 73.347464 254.017409 32.434704 C 254.017409 -8.478055 287.180909 -41.683218 328.093669 -41.683218 Z M 328.093669 -41.683218 " transform="matrix(0.093759,0,0,0.093759,0,20.158175)"/>
<path style=" stroke:none;fill-rule:nonzero;fill:url(#linear4);" d="M 33.777344 20.171875 C 33.4375 20.160156 33.113281 20.320312 32.914062 20.59375 L 30.585938 23.695312 L 28.445312 21.910156 C 28.160156 21.667969 27.773438 21.597656 27.421875 21.726562 C 27.074219 21.851562 26.820312 22.15625 26.757812 22.523438 C 26.695312 22.886719 26.835938 23.257812 27.125 23.492188 L 30.101562 25.972656 C 30.316406 26.15625 30.597656 26.238281 30.878906 26.207031 C 31.160156 26.171875 31.417969 26.027344 31.585938 25.800781 L 34.5625 21.832031 C 34.800781 21.523438 34.84375 21.109375 34.679688 20.761719 C 34.511719 20.410156 34.164062 20.179688 33.777344 20.171875 Z M 33.777344 20.171875 "/>
<path style=" stroke:none;fill-rule:nonzero;fill:rgb(100%,100%,100%);fill-opacity:1;" d="M 33.777344 20.171875 C 33.4375 20.160156 33.113281 20.320312 32.914062 20.59375 L 30.585938 23.695312 L 28.445312 21.910156 C 28.097656 21.617188 27.605469 21.582031 27.222656 21.824219 C 26.84375 22.066406 26.664062 22.53125 26.78125 22.964844 C 26.875 22.625 27.136719 22.359375 27.472656 22.253906 C 27.808594 22.152344 28.175781 22.226562 28.445312 22.457031 L 30.585938 24.242188 L 32.914062 21.140625 C 33.113281 20.867188 33.4375 20.707031 33.777344 20.71875 C 34.230469 20.730469 34.621094 21.039062 34.738281 21.476562 C 34.824219 21.171875 34.761719 20.84375 34.574219 20.589844 C 34.386719 20.332031 34.09375 20.179688 33.777344 20.171875 Z M 33.777344 20.171875 "/>
<path style=" stroke:none;fill-rule:nonzero;fill:rgb(0%,0%,0%);fill-opacity:0.235294;" d="M 34.707031 21.574219 C 34.671875 21.667969 34.625 21.753906 34.5625 21.832031 L 31.585938 25.800781 C 31.417969 26.027344 31.160156 26.171875 30.878906 26.207031 C 30.597656 26.238281 30.316406 26.15625 30.101562 25.972656 L 27.125 23.492188 C 26.984375 23.378906 26.878906 23.230469 26.816406 23.066406 C 26.652344 23.480469 26.777344 23.953125 27.125 24.238281 L 30.101562 26.71875 C 30.316406 26.898438 30.597656 26.980469 30.878906 26.949219 C 31.160156 26.917969 31.417969 26.769531 31.585938 26.542969 L 34.5625 22.574219 C 34.78125 22.289062 34.835938 21.910156 34.707031 21.574219 Z M 34.707031 21.574219 "/>
<path style="fill:none;stroke-width:3;stroke-linecap:round;stroke-linejoin:round;stroke:rgb(12.941177%,12.941177%,12.941177%);stroke-opacity:1;stroke-miterlimit:4;" d="M 360.257264 0.146121 C 356.63261 0.0211332 353.174607 1.729303 351.04981 4.645692 L 326.218848 37.725866 L 303.387695 18.686017 C 300.346318 16.102931 296.221712 15.353002 292.47207 16.727871 C 288.764091 18.061077 286.056016 21.310767 285.389413 25.227059 C 284.72281 29.101689 286.222667 33.059645 289.305706 35.559406 L 321.052674 62.015213 C 323.344122 63.973359 326.343836 64.848276 329.343549 64.514974 C 332.343263 64.14001 335.093 62.598491 336.884496 60.182055 L 368.631464 17.852764 C 371.172888 14.561411 371.631178 10.145166 369.881345 6.437187 C 368.089849 2.687545 364.38187 0.229447 360.257264 0.146121 Z M 360.257264 0.146121 " transform="matrix(0.093759,0,0,0.093759,0,20.158175)"/>
</g>
</svg>
